.local/share/icons/Gruvbox-Plus-Dark/apps/16/ascii-design.svg

<svg width="16" height="16" version="1.1" xmlns="http://www.w3.org/2000/svg">
  <defs>
    <style id="current-color-scheme" type="text/css">.ColorScheme-Text { color:#ebdbb2; } .ColorScheme-Highlight { color:#458588; }</style>
  </defs>
  <path class="ColorScheme-Text" d="m0 4.308v7.384h0.615v-3.077h1.231v3.077h0.616v-7.384h-2.462zm3.692 0v3.692h1.846v3.077h-1.846v0.615h2.462v-4.307h-1.846v-2.462h1.846v-0.615h-2.462zm3.693 0v7.384h2.461v-0.615h-1.846v-6.154h1.846v-0.615h-2.461zm3.692 0v0.615h0.615v6.154h-0.615v0.615h1.846v-0.615h-0.615v-6.154h0.615v-0.615h-1.846zm3.077 0v0.615h0.615v6.154h-0.615v0.615h1.846v-0.615h-0.615v-6.154h0.615v-0.615h-1.846zm-13.54 0.615h1.231v3.077h-1.231v-3.077z" fill="currentColor"/>
</svg>

<svg xmlns="http://www.w3.org/2000/svg" style="isolation:isolate" width="16" height="16" viewBox="0 0 16 16">
 <defs>
  <style id="current-color-scheme" type="text/css">
   .ColorScheme-Text { color:#ebdbb2; } .ColorScheme-Highlight { color:#458588; }
  </style>
  <linearGradient id="arrongin" x1="0%" x2="0%" y1="0%" y2="100%">
   <stop offset="0%" style="stop-color:#d79921; stop-opacity:1"/>
   <stop offset="100%" style="stop-color:#b57614; stop-opacity:1"/>
  </linearGradient>
  <linearGradient id="aurora" x1="0%" x2="0%" y1="0%" y2="100%">
   <stop offset="0%" style="stop-color:#83a598; stop-opacity:1"/>
   <stop offset="100%" style="stop-color:#b16286; stop-opacity:1"/>
  </linearGradient>
  <linearGradient id="fitdance" x1="0%" x2="0%" y1="0%" y2="100%">
   <stop offset="0%" style="stop-color:#8ec07c; stop-opacity:1"/>
   <stop offset="100%" style="stop-color:#458588; stop-opacity:1"/>
  </linearGradient>
  <linearGradient id="oomox" x1="0%" x2="0%" y1="0%" y2="100%">
   <stop offset="0%" style="stop-color:#458588; stop-opacity:1"/>
   <stop offset="100%" style="stop-color:#928374; stop-opacity:1"/>
  </linearGradient>
  <linearGradient id="rainblue" x1="0%" x2="0%" y1="0%" y2="100%">
   <stop offset="0%" style="stop-color:#b8bb26; stop-opacity:1"/>
   <stop offset="100%" style="stop-color:#076678; stop-opacity:1"/>
  </linearGradient>
  <linearGradient id="sunrise" x1="0%" x2="0%" y1="0%" y2="100%">
   <stop offset="0%" style="stop-color: #fe8019; stop-opacity:1"/>
   <stop offset="100%" style="stop-color: #fabd2f; stop-opacity:1"/>
  </linearGradient>
  <linearGradient id="telinkrin" x1="0%" x2="0%" y1="0%" y2="100%">
   <stop offset="0%" style="stop-color: #83a598; stop-opacity:1"/>
   <stop offset="100%" style="stop-color: #83a598; stop-opacity:1"/>
  </linearGradient>
  <linearGradient id="60spsycho" x1="0%" x2="0%" y1="0%" y2="100%">
   <stop offset="0%" style="stop-color: #fb4934; stop-opacity:1"/>
   <stop offset="25%" style="stop-color: #fabd2f; stop-opacity:1"/>
   <stop offset="50%" style="stop-color: #fe8019; stop-opacity:1"/>
   <stop offset="100%" style="stop-color: #689d6a; stop-opacity:1"/>
  </linearGradient>
  <linearGradient id="90ssummer" x1="0%" x2="0%" y1="0%" y2="100%">
   <stop offset="0%" style="stop-color: #b16286; stop-opacity:1"/>
   <stop offset="20%" style="stop-color: #8ec07c; stop-opacity:1"/>
   <stop offset="50%" style="stop-color: #fabd2f; stop-opacity:1"/>
   <stop offset="100%" style="stop-color: #458588; stop-opacity:1"/>
  </linearGradient>
  <linearGradient id="cyberneon" x1="0%" x2="0%" y1="0%" y2="100%">
    <stop offset="0" style="stop-color:#83a598; stop-opacity:1"/>
    <stop offset="1" style="stop-color:#b16286; stop-opacity:1"/>
  </linearGradient>
  <clipPath id="_clipPath_28IMoYsYPoIVAhUGFsarndotRysX0W9N">
   <rect width="16" height="16"/>
  </clipPath>
 </defs>
 <g clip-path="url(#_clipPath_28IMoYsYPoIVAhUGFsarndotRysX0W9N)">
  <rect style="fill:currentColor" class="ColorScheme-Text" width="4.625" height="3.594" x="17.09" y="-.09" transform="matrix(1,0,0,1,0,0)"/>
  <path style="fill:currentColor" class="ColorScheme-Text" fill-rule="evenodd" d="M 0 4.308 L 0 11.692 L 0.615 11.692 L 0.615 8.615 L 1.846 8.615 L 1.846 11.692 L 2.462 11.692 L 2.462 4.308 L 0 4.308 Z M 3.692 4.308 L 3.692 8 L 5.538 8 L 5.538 11.077 L 3.692 11.077 L 3.692 11.692 L 6.154 11.692 L 6.154 7.385 L 4.308 7.385 L 4.308 4.923 L 6.154 4.923 L 6.154 4.308 L 3.692 4.308 Z M 7.385 4.308 L 7.385 11.692 L 9.846 11.692 L 9.846 11.077 L 8 11.077 L 8 4.923 L 9.846 4.923 L 9.846 4.308 L 7.385 4.308 Z M 11.077 4.308 L 11.077 4.923 L 11.692 4.923 L 11.692 11.077 L 11.077 11.077 L 11.077 11.692 L 12.923 11.692 L 12.923 11.077 L 12.308 11.077 L 12.308 4.923 L 12.923 4.923 L 12.923 4.308 L 11.077 4.308 Z M 14.154 4.308 L 14.154 4.923 L 14.769 4.923 L 14.769 11.077 L 14.154 11.077 L 14.154 11.692 L 16 11.692 L 16 11.077 L 15.385 11.077 L 15.385 4.923 L 16 4.923 L 16 4.308 L 14.154 4.308 Z M 0.615 4.923 L 1.846 4.923 L 1.846 8 L 0.615 8 L 0.615 4.923 Z"/>
 </g>
</svg>
